images/icon-facebook.svg

<svg width="25" height="24" viewBox="0 0 25 24" fill="none" xmlns="http://www.w3.org/2000/svg">
<path fill-rule="evenodd" clip-rule="evenodd" d="M12.5039 0C5.87649 0 0.503906 5.37258 0.503906 12C0.503906 18.6274 5.87649 24 12.5039 24C19.1313 24 24.5039 18.6274 24.5039 12C24.5039 5.37258 19.1313 0 12.5039 0ZM13.7547 12.5271V19.0557H11.0534V12.5274H9.70391V10.2776H11.0534V8.92678C11.0534 7.0914 11.8155 6 13.9805 6H15.7829V8.25006H14.6563C13.8135 8.25006 13.7577 8.56447 13.7577 9.15125L13.7547 10.2773H15.7957L15.5569 12.5271H13.7547Z" fill="#9E9DAD"/>
</svg>

<svg xmlns="http://www.w3.org/2000/svg" width="25" height="24" fill="none"><path fill="#9E9DAD" fill-rule="evenodd" d="M12.504 0c-6.628 0-12 5.373-12 12s5.372 12 12 12c6.627 0 12-5.373 12-12s-5.373-12-12-12Zm1.25 12.527v6.529h-2.7v-6.529h-1.35v-2.25h1.35v-1.35C11.053 7.09 11.814 6 13.98 6h1.803v2.25h-1.127c-.843 0-.898.314-.898.901l-.003 1.126h2.04l-.238 2.25h-1.802Z" clip-rule="evenodd"/></svg>
